!!!OTL: Jiemeimen yaojuewu
!!!ARE: Asia, China,ÿHunan Liuyang
!! I, 517
!!!SCT: C1969
!!!YEM: Copyright 1995, estate of Helmut Schaffrath.
**kern
*ICvox
*Ivox
*M2/4
*k[]
*C:
{8.cc
16dd
16ee
16dd
8ee
=1
8dd
8dd
8r
8ee
=2
8cc
8ee
16dd
16cc
8a
=3
8g
16e
16d
4g}
=4
{8g
16e
16d
8g
8a
=5
8.cc
16dd
16ee
16dd
8ee
=6
8.cc
16ee
16dd
16cc
8a
=7
16g
16a
16e
16d
4g}
=8
{8g
16e
16d
8.g
16a
=9
8gg
8ee
8dd
8cc
=10
8.e
16g
8a
8cc
=11
8g
16e
16d
4g}
=12
{8cc
8g
8a
8cc
=13
16a
16cc
16a
16g
8e
8d
=14
8g
16a
16cc
16g
16a
16g
16e
=15
2d}
=16
{8ee
16ee
16dd
16cc
16dd
16ee
16gg
=17
8dd
8dd
8r
8cc
=18
8cc
8g
8a
8cc
=19
16a
16cc
16a
16g
8.e
16g}
=20
{16a
16cc
16dd
16ee
16dd
16cc
8a
=21
4g
4r}
==
!!!AGN: Xiaodiao
!!!ONB: ESAC (Essen Associative Code) Database: SENGANSU
!!!AMT: simple duple
!!!AIN: vox
!!!EED: Helmut Schaffrath
!!!EEV: 1.0
*-
